;FLAVOR:UltiGCode
;TIME:9955
;MATERIAL:21475
;MATERIAL2:0
;NOZZLE_DIAMETER:0.6
;MINX:76.891
;MINY:93.106
;MINZ:0.4
;MAXX:146.109
;MAXY:129.895
;MAXZ:31.9
;Generated with Cura_SteamEngine 4.8.0
M82 ;absolute extrusion mode
G0 F3000 Y50 ;avoid prime blob
G92 E0
G92 E0
G10
;LAYER_COUNT:211
;LAYER:0
M107
G0 F3927.3 X90.092 Y94.439 Z0.4
;TYPE:SKIRT
G11
G1 F1800 X90.5 Y94.069 E0.11677
G1 X91 Y93.738 E0.24389
G1 X91.188 Y93.634 E0.28944
G1 X91.688 Y93.403 E0.4062
G1 X92.338 Y93.223 E0.54919
G1 X92.588 Y93.177 E0.60308
G1 X93.18 Y93.115 E0.72927
G1 X93.595 Y93.106 E0.81727
G1 X115.581 Y93.114 E5.4783
G1 X140.759 Y93.115 E10.81604
G1 X141.454 Y93.125 E10.96339
G1 X142.002 Y93.173 E11.08001
G1 X142.538 Y93.3 E11.19679
G1 X143.05 Y93.503 E11.31356
G1 X143.527 Y93.778 E11.43028
G1 X143.959 Y94.119 E11.54696
G1 X144.338 Y94.519 E11.66378
G1 X144.654 Y94.969 E11.78035
G1 X144.902 Y95.461 E11.89716
G1 X145.077 Y95.983 E12.01388
G1 X145.192 Y96.798 E12.18837
G1 X145.204 Y97.232 E12.28041
G1 X145.204 Y125.401 E18.25224
G1 X145.195 Y126.128 E18.40637
G1 X145.148 Y126.677 E18.52319
G1 X145.022 Y127.213 E18.63992
G1 X144.82 Y127.725 E18.7566
G1 X144.546 Y128.203 E18.87341
G1 X144.206 Y128.636 E18.99012
G1 X143.807 Y129.015 E19.10679
G1 X143.357 Y129.332 E19.22348
G1 X142.866 Y129.581 E19.34019
G1 X142.344 Y129.757 E19.45698
G1 X141.802 Y129.855 E19.57375
G1 X141.181 Y129.884 E19.70554
G1 X99.787 Y129.895 E28.48107
G1 X93.86 Y129.894 E29.73759
G1 X93.17 Y129.884 E29.88389
G1 X92.625 Y129.836 E29.99988
G1 X92.45 Y129.808 E30.03745
G1 X91.914 Y129.682 E30.15418
G1 X91.402 Y129.48 E30.27086
G1 X90.775 Y129.114 E30.42478
G1 X90.33 Y128.789 E30.5416
G1 X89.937 Y128.403 E30.65838
G1 X89.604 Y127.965 E30.77502
G1 X89.284 Y127.358 E30.9205
G1 X89.085 Y126.847 E31.03675
G1 X88.928 Y126.319 E31.15353
G1 X88.842 Y125.574 E31.31252
G1 X88.826 Y124.629 E31.51289
G1 X88.827 Y98.11 E37.13492
G1 X88.838 Y97.438 E37.2774
G1 X88.886 Y96.889 E37.39423
G1 X89.006 Y96.381 E37.50489
G1 X89.089 Y96.112 E37.56457
G1 X89.289 Y95.599 E37.6813
G1 X89.62 Y95.035 E37.81994
G1 X89.742 Y94.863 E37.86465
G1 X90.092 Y94.439 E37.9812
G0 F3927.3 X90.501 Y94.778
G1 F1800 X90.885 Y94.442 E38.08938
G1 X91.445 Y94.098 E38.22871
G1 X91.909 Y93.887 E38.33677
G1 X92.434 Y93.744 E38.45212
G1 X92.684 Y93.698 E38.50601
G1 X93.193 Y93.645 E38.6145
G1 X93.595 Y93.636 E38.69975
G1 X115.581 Y93.644 E43.36078
G1 X140.751 Y93.645 E48.69682
G1 X141.446 Y93.655 E48.84418
G1 X141.954 Y93.703 E48.95235
G1 X142.449 Y93.829 E49.06064
G1 X142.919 Y94.03 E49.16901
G1 X143.351 Y94.302 E49.27723
G1 X143.735 Y94.639 E49.38555
G1 X144.062 Y95.031 E49.49377
G1 X144.324 Y95.469 E49.60197
G1 X144.514 Y95.943 E49.71023
G1 X144.629 Y96.441 E49.81858
G1 X144.672 Y97.127 E49.9643
G1 X144.674 Y97.232 E49.98656
G1 X144.674 Y125.394 E55.95691
G1 X144.665 Y126.121 E56.11104
G1 X144.619 Y126.63 E56.21939
G1 X144.494 Y127.125 E56.32763
G1 X144.293 Y127.595 E56.436
G1 X144.021 Y128.027 E56.54422
G1 X143.686 Y128.412 E56.65241
G1 X143.294 Y128.74 E56.76077
G1 X142.857 Y129.003 E56.8689
G1 X142.383 Y129.194 E56.97724
G1 X141.886 Y129.31 E57.08544
G1 X141.167 Y129.354 E57.23815
G1 X99.787 Y129.365 E66.01071
G1 X93.868 Y129.364 E67.26554
G1 X93.178 Y129.354 E67.41183
G1 X92.534 Y129.285 E67.54914
G1 X92.038 Y129.165 E67.65733
G1 X91.566 Y128.969 E67.76568
G1 X91.056 Y128.665 E67.89155
G1 X90.645 Y128.361 E67.99992
G1 X90.287 Y127.997 E68.10816
G1 X89.99 Y127.582 E68.21635
G1 X89.73 Y127.051 E68.34169
G1 X89.581 Y126.66 E68.4304
G1 X89.439 Y126.17 E68.53855
G1 X89.371 Y125.565 E68.66762
G1 X89.356 Y124.685 E68.85421
G1 X89.356 Y98.119 E74.4862
G1 X89.367 Y97.447 E74.62868
G1 X89.416 Y96.938 E74.73709
G1 X89.595 Y96.268 E74.88411
G1 X89.783 Y95.794 E74.99221
G1 X90.052 Y95.342 E75.10372
G1 X90.174 Y95.17 E75.14843
G1 X90.501 Y94.778 E75.25665
G10
;MESH:Brooks3DPizzaTruck (1).stl
G0 F3927.3 X92.607 Y96.238
G0 X93.43 Y97.71
G0 X115.548 Y98.234
;TYPE:WALL-INNER
G11
G1 F1800 X140.084 Y98.235 E80.45828
G1 X140.084 Y124.765 E86.08264
G1 X99.788 Y124.775 E94.6254
G1 X93.946 Y124.774 E95.8639
G1 X93.946 Y98.491 E101.4359
G1 X93.946 Y98.226 E101.49208
G1 X94.211 Y98.226 E101.52843
G1 X115.548 Y98.234 E106.05188
G0 F3927.3 X115.548 Y97.704
G1 F1800 X140.614 Y97.705 E111.36587
G1 X140.614 Y125.295 E117.21495
G1 X99.788 Y125.305 E125.87006
G1 X93.416 Y125.304 E127.22093
G1 X93.416 Y97.961 E133.01764
G1 X93.416 Y97.696 E133.07382
G1 X93.681 Y97.696 E133.11018
G1 X115.548 Y97.704 E137.74598
G0 F3927.3 X115.548 Y97.209
;TYPE:WALL-OUTER
G1 F1800 X141.109 Y97.21 E143.16492
G1 X141.109 Y125.79 E149.22388
G1 X99.788 Y125.8 E157.98393
G1 X93.243 Y125.799 E159.37147
G1 X93.016 Y125.702 E159.4238
G1 X92.921 Y125.474 E159.47617
G1 X92.921 Y97.576 E165.39054
G1 X92.921 Y97.545 E165.39711
G1 X93.019 Y97.291 E165.45483
G1 X93.237 Y97.201 E165.50483
G1 X93.268 Y97.201 E165.5114
G1 X115.548 Y97.209 E170.23476
G0 F3927.3 X115.848 Y97.209
G0 X115.847 Y97.804
G0 X115.548 Y98.754
;TYPE:SKIN
G1 F1800 X139.564 Y98.755 E175.32616
G1 X139.564 Y124.245 E180.73004
G1 X99.788 Y124.255 E189.16255
G1 X94.466 Y124.254 E190.29081
G1 X94.466 Y98.746 E195.69851
G1 X115.548 Y98.754 E200.16789
G0 F3927.3 X139.325 Y99.6
G1 F1800 X138.718 Y98.992 E200.35003
G0 F3927.3 X137.968 Y98.992
G1 F1800 X139.325 Y100.349 E200.75688
G0 F3927.3 X139.325 Y101.099
G1 F1800 X137.219 Y98.992 E201.38843
G0 F3927.3 X136.469 Y98.992
G1 F1800 X139.325 Y101.848 E202.2447
G0 F3927.3 X139.325 Y102.598
G1 F1800 X135.719 Y98.992 E203.32583
G0 F3927.3 X134.97 Y98.992
G1 F1800 X139.325 Y103.347 E204.63151
G0 F3927.3 X139.325 Y104.097
G1 F1800 X134.22 Y98.992 E206.16206
G0 F3927.3 X133.471 Y98.992
G1 F1800 X139.325 Y104.846 E207.91717
G0 F3927.3 X139.325 Y105.596
G1 F1800 X132.721 Y98.992 E209.89713
G0 F3927.3 X131.972 Y98.992
G1 F1800 X139.325 Y106.346 E212.10181
G0 F3927.3 X139.325 Y107.095
G1 F1800 X131.222 Y98.992 E214.5312
G0 F3927.3 X130.473 Y98.992
G1 F1800 X139.325 Y107.845 E217.18529
G0 F3927.3 X139.325 Y108.594
G1 F1800 X129.723 Y98.992 E220.0641
G0 F3927.3 X128.974 Y98.992
G1 F1800 X139.325 Y109.344 E223.16762
G0 F3927.3 X139.325 Y110.093
G1 F1800 X128.224 Y98.992 E226.49584
G0 F3927.3 X127.475 Y98.992
G1 F1800 X139.325 Y110.843 E230.04878
G0 F3927.3 X139.325 Y111.592
G1 F1800 X126.725 Y98.992 E233.82643
G0 F3927.3 X125.976 Y98.992
G1 F1800 X139.325 Y112.342 E237.82879
G0 F3927.3 X139.325 Y113.091
G1 F1800 X125.226 Y98.992 E242.05585
G0 F3927.3 X124.476 Y98.992
G1 F1800 X139.325 Y113.841 E246.50778
G0 F3927.3 X139.325 Y114.59
G1 F1800 X123.727 Y98.992 E251.18427
G0 F3927.3 X122.977 Y98.992
G1 F1800 X139.325 Y115.34 E256.08562
G0 F3927.3 X139.325 Y116.089
G1 F1800 X122.228 Y98.992 E261.21152
G0 F3927.3 X121.478 Y98.992
G1 F1800 X139.325 Y116.839 E266.56229
G0 F3927.3 X139.325 Y117.589
G1 F1800 X120.729 Y98.992 E272.13777
G0 F3927.3 X119.979 Y98.992
G1 F1800 X139.325 Y118.338 E277.93796
G0 F3927.3 X139.325 Y119.088
G1 F1800 X119.23 Y98.992 E283.96285
G0 F3927.3 X118.48 Y98.992
G1 F1800 X139.325 Y119.837 E290.21246
G0 F3927.3 X139.325 Y120.587
G1 F1800 X117.731 Y98.992 E296.68678
G0 F3927.3 X116.981 Y98.992
G1 F1800 X139.325 Y121.336 E303.38581
G0 F3927.3 X139.325 Y122.086
G1 F1800 X116.232 Y98.992 E310.30955
G0 F3927.3 X115.481 Y98.992
G1 F1800 X139.325 Y122.835 E317.45814
G0 F3927.3 X139.325 Y123.585
G1 F1800 X114.732 Y98.992 E324.83145
G0 F3927.3 X113.982 Y98.992
G1 F1800 X138.997 Y124.006 E332.33113
G0 F3927.3 X138.247 Y124.006
G1 F1800 X113.232 Y98.991 E339.83096
G0 F3927.3 X112.483 Y98.991
G1 F1800 X137.498 Y124.006 E347.33079
G0 F3927.3 X136.748 Y124.006
G1 F1800 X111.732 Y98.99 E354.83092
G0 F3927.3 X110.983 Y98.99
G1 F1800 X135.999 Y124.007 E362.3312
G0 F3927.3 X135.25 Y124.007
G1 F1800 X110.232 Y98.989 E369.83192
G0 F3927.3 X109.483 Y98.989
G1 F1800 X134.5 Y124.007 E377.3325
G0 F3927.3 X133.751 Y124.007
G1 F1800 X108.733 Y98.989 E384.83323
G0 F3927.3 X107.983 Y98.989
G1 F1800 X133.002 Y124.008 E392.33426
G0 F3927.3 X132.253 Y124.008
G1 F1800 X107.234 Y98.989 E399.83529
G0 F3927.3 X106.483 Y98.988
G1 F1800 X131.503 Y124.008 E407.33662
G0 F3927.3 X130.754 Y124.008
G1 F1800 X105.734 Y98.988 E414.83794
G0 F3927.3 X104.984 Y98.987
G1 F1800 X130.005 Y124.008 E422.33957
G0 F3927.3 X129.255 Y124.008
G1 F1800 X104.234 Y98.987 E429.8412
G0 F3927.3 X103.485 Y98.987
G1 F1800 X128.506 Y124.008 E437.34283
G0 F3927.3 X127.757 Y124.009
G1 F1800 X102.734 Y98.987 E444.84491
G0 F3927.3 X101.985 Y98.987
G1 F1800 X127.007 Y124.009 E452.34683
G0 F3927.3 X126.258 Y124.009
G1 F1800 X101.235 Y98.986 E459.84906
G0 F3927.3 X100.485 Y98.986
G1 F1800 X125.508 Y124.009 E467.35129
G0 F3927.3 X124.759 Y124.01
G1 F1800 X99.735 Y98.985 E474.85397
G0 F3927.3 X98.985 Y98.985
G1 F1800 X124.01 Y124.01 E482.35679
G0 F3927.3 X123.26 Y124.01
G1 F1800 X98.236 Y98.985 E489.85947
G0 F3927.3 X97.485 Y98.985
G1 F1800 X122.511 Y124.01 E497.36245
G0 F3927.3 X121.762 Y124.01
G1 F1800 X96.736 Y98.985 E504.86543
G0 F3927.3 X95.986 Y98.984
G1 F1800 X121.012 Y124.01 E512.36855
G0 F3927.3 X120.263 Y124.01
G1 F1800 X95.236 Y98.984 E519.87183
G0 F3927.3 X94.704 Y99.201
G1 F1800 X119.514 Y124.011 E527.3102
G0 F3927.3 X118.764 Y124.011
G1 F1800 X94.704 Y99.95 E534.52385
G0 F3927.3 X94.704 Y100.7
G1 F1800 X118.015 Y124.011 E541.5128
G0 F3927.3 X117.265 Y124.011
G1 F1800 X94.704 Y101.45 E548.27689
G0 F3927.3 X94.704 Y102.199
G1 F1800 X116.517 Y124.012 E554.81672
G0 F3927.3 X115.767 Y124.012
G1 F1800 X94.704 Y102.949 E561.13168
G0 F3927.3 X94.704 Y103.698
G1 F1800 X115.017 Y124.012 E567.22194
G0 F3927.3 X114.268 Y124.012
G1 F1800 X94.704 Y104.448 E573.08749
G0 F3927.3 X94.704 Y105.197
G1 F1800 X113.519 Y124.013 E578.72862
G0 F3927.3 X112.77 Y124.013
G1 F1800 X94.704 Y105.947 E584.14505
G0 F3927.3 X94.704 Y106.696
G1 F1800 X112.02 Y124.013 E589.33677
G0 F3927.3 X111.271 Y124.013
G1 F1800 X94.704 Y107.446 E594.30377
G0 F3927.3 X94.704 Y108.195
G1 F1800 X110.522 Y124.013 E599.04622
G0 F3927.3 X109.772 Y124.013
G1 F1800 X94.704 Y108.945 E603.56381
G0 F3927.3 X94.704 Y109.694
G1 F1800 X109.023 Y124.013 E607.85683
G0 F3927.3 X108.273 Y124.013
G1 F1800 X94.704 Y110.444 E611.925
G0 F3927.3 X94.704 Y111.193
G1 F1800 X107.524 Y124.014 E615.76875
G0 F3927.3 X106.775 Y124.014
G1 F1800 X94.704 Y111.943 E619.3878
G0 F3927.3 X94.704 Y112.693
G1 F1800 X106.025 Y124.014 E622.78199
G0 F3927.3 X105.276 Y124.015
G1 F1800 X94.704 Y113.442 E625.95176
G0 F3927.3 X94.704 Y114.192
G1 F1800 X104.527 Y124.015 E628.89683
G0 F3927.3 X103.777 Y124.015
G1 F1800 X94.704 Y114.941 E631.61718
G0 F3927.3 X94.704 Y115.691
G1 F1800 X103.028 Y124.015 E634.11283
G0 F3927.3 X102.279 Y124.015
G1 F1800 X94.704 Y116.44 E636.38392
G0 F3927.3 X94.704 Y117.19
G1 F1800 X101.529 Y124.015 E638.43014
G0 F3927.3 X100.78 Y124.015
G1 F1800 X94.704 Y117.939 E640.25181
G0 F3927.3 X94.704 Y118.689
G1 F1800 X100.03 Y124.015 E641.84861
G0 F3927.3 X99.281 Y124.015
G1 F1800 X94.704 Y119.438 E643.22086
G0 F3927.3 X94.704 Y120.188
G1 F1800 X98.531 Y124.015 E644.36824
G0 F3927.3 X97.782 Y124.015
G1 F1800 X94.704 Y120.937 E645.29107
G0 F3927.3 X94.704 Y121.687
G1 F1800 X97.032 Y124.015 E645.98903
G0 F3927.3 X96.282 Y124.015
G1 F1800 X94.704 Y122.436 E646.46229
G0 F3927.3 X94.704 Y123.186
G1 F1800 X95.532 Y124.015 E646.71068
G0 F3927.3 X94.783 Y124.015
G1 F1800 X94.704 Y123.936 E646.73437
;MESH:NONMESH
G0 F600 X94.704 Y123.936 Z0.55
G0 F3927.3 X124.635 Y97.98
;TIME_ELAPSED:109.860750
;LAYER:1
M106 S255
;TYPE:WALL-INNER
;MESH:Brooks3DPizzaTruck (1).stl
G1 F2100 X140.084 Y97.98 E647.96256
G1 X140.084 Y125.021 E650.11232
G1 X93.96 Y125.026 E653.77918
G1 X93.695 Y125.026 E653.80025
G1 X93.695 Y124.761 E653.81388
G1 X93.694 Y97.975 E655.94337
G1 X106.906 Y97.974 E656.99372
G1 X124.635 Y97.98 E658.40318
G0 F5563.6 X124.635 Y97.45
G1 F2100 X140.614 Y97.45 E659.67351
G1 X140.614 Y125.551 E661.90754
G1 X93.472 Y125.556 E665.65533
G1 X93.309 Y125.556 E665.66829
G1 X93.196 Y125.524 E665.67762
G1 X93.165 Y125.412 E665.68686
G1 X93.165 Y125.249 E665.69982
G1 X93.164 Y97.596 E667.89824
G1 X93.224 Y97.457 E667.91027
G1 X93.289 Y97.445 E667.91553
G1 X106.906 Y97.444 E668.99808
G1 X124.635 Y97.45 E670.40753
G0 F5563.6 X124.635 Y96.955
;TYPE:WALL-OUTER
G1 F1650 X141.109 Y96.955 E671.71722
G1 X141.109 Y126.046 E674.02995
G1 X93.243 Y126.051 E677.8353
G1 X92.943 Y125.97 E677.86
G1 X92.754 Y125.783 E677.88114
G1 X92.67 Y125.479 E677.90621
G1 X92.669 Y97.538 E680.12752
G1 X92.74 Y97.243 E680.15164
G1 X92.879 Y97.084 E680.16843
G1 X93.053 Y96.985 E680.18435
G1 X93.242 Y96.95 E680.19963
G1 X106.906 Y96.949 E681.28592
G1 X124.635 Y96.955 E682.69537
G0 F5563.6 X124.935 Y96.955
G0 X124.935 Y97.55
G0 X124.635 Y98.5
;TYPE:SKIN
G1 F1500 X139.564 Y98.5 E683.88223
G1 X139.564 Y124.501 E685.94931
G1 X94.215 Y124.506 E689.55455
G1 X94.214 Y98.495 E691.62243
G1 X106.906 Y98.494 E692.63144
G1 X124.635 Y98.5 E694.0409
G0 F5563.6 X139.325 Y123.76
G1 F1500 X138.822 Y124.263 E694.09745
G0 F5563.6 X138.073 Y124.263
G1 F1500 X139.325 Y123.011 E694.23821
G0 F5563.6 X139.325 Y122.261
G1 F1500 X137.323 Y124.263 E694.4633
G0 F5563.6 X136.574 Y124.263
G1 F1500 X139.325 Y121.512 E694.77259
G0 F5563.6 X139.325 Y120.762
G1 F1500 X135.824 Y124.263 E695.16621
G0 F5563.6 X135.075 Y124.263
G1 F1500 X139.325 Y120.012 E695.64409
G0 F5563.6 X139.325 Y119.263
G1 F1500 X134.325 Y124.263 E696.20624
G0 F5563.6 X133.576 Y124.263
G1 F1500 X139.325 Y118.513 E696.85266
G0 F5563.6 X139.325 Y117.764
G1 F1500 X132.825 Y124.264 E697.58345
G0 F5563.6 X132.076 Y124.264
G1 F1500 X139.325 Y117.014 E698.39852
G0 F5563.6 X139.325 Y116.265
G1 F1500 X131.326 Y124.264 E699.29784
G0 F5563.6 X130.577 Y124.264
G1 F1500 X139.325 Y115.515 E700.28144
G0 F5563.6 X139.325 Y114.766
G1 F1500 X129.827 Y124.264 E701.3493
G0 F5563.6 X129.078 Y124.264
G1 F1500 X139.325 Y114.016 E702.50142
G0 F5563.6 X139.325 Y113.267
G1 F1500 X128.328 Y124.264 E703.73782
G0 F5563.6 X127.579 Y124.264
G1 F1500 X139.325 Y112.517 E705.05847
G0 F5563.6 X139.325 Y111.768
G1 F1500 X126.829 Y124.264 E706.4634
G0 F5563.6 X126.079 Y124.264
G1 F1500 X139.325 Y111.018 E707.95265
G0 F5563.6 X139.325 Y110.269
G1 F1500 X125.329 Y124.264 E709.52616
G0 F5563.6 X124.58 Y124.264
G1 F1500 X139.325 Y109.519 E711.18394
G0 F5563.6 X139.325 Y108.769
G1 F1500 X123.83 Y124.264 E712.92604
G0 F5563.6 X123.081 Y124.264
G1 F1500 X139.325 Y108.02 E714.75236
G0 F5563.6 X139.325 Y107.27
G1 F1500 X122.331 Y124.264 E716.66299
G0 F5563.6 X121.582 Y124.264
G1 F1500 X139.325 Y106.521 E718.65784
G0 F5563.6 X139.325 Y105.771
G1 F1500 X120.832 Y124.264 E720.737
G0 F5563.6 X120.082 Y124.265
G1 F1500 X139.325 Y105.022 E722.90049
G0 F5563.6 X139.325 Y104.272
G1 F1500 X119.332 Y124.265 E725.14831
G0 F5563.6 X118.583 Y124.265
G1 F1500 X139.325 Y103.523 E727.48033
G0 F5563.6 X139.325 Y102.773
G1 F1500 X117.833 Y124.265 E729.89667
G0 F5563.6 X117.084 Y124.265
G1 F1500 X139.325 Y102.024 E732.39723
G0 F5563.6 X139.325 Y101.274
G1 F1500 X116.334 Y124.265 E734.98211
G0 F5563.6 X115.585 Y124.265
G1 F1500 X139.325 Y100.525 E737.65119
G0 F5563.6 X139.325 Y99.775
G1 F1500 X114.835 Y124.265 E740.4046
G0 F5563.6 X114.086 Y124.265
G1 F1500 X139.325 Y99.026 E743.24222
G0 F5563.6 X138.864 Y98.737
G1 F1500 X113.335 Y124.266 E746.11245
G0 F5563.6 X112.586 Y124.266
G1 F1500 X138.114 Y98.737 E748.98262
G0 F5563.6 X137.365 Y98.737
G1 F1500 X111.836 Y124.266 E751.85284
G0 F5563.6 X111.087 Y124.266
G1 F1500 X136.615 Y98.737 E754.72301
G0 F5563.6 X135.866 Y98.737
G1 F1500 X110.337 Y124.266 E757.59324
G0 F5563.6 X109.588 Y124.266
G1 F1500 X135.116 Y98.737 E760.46341
G0 F5563.6 X134.367 Y98.737
G1 F1500 X108.838 Y124.266 E763.33363
G0 F5563.6 X108.089 Y124.266
G1 F1500 X133.617 Y98.737 E766.2038
G0 F5563.6 X132.868 Y98.737
G1 F1500 X107.339 Y124.266 E769.07402
G0 F5563.6 X106.589 Y124.266
G1 F1500 X132.118 Y98.737 E771.94425
G0 F5563.6 X131.369 Y98.737
G1 F1500 X105.839 Y124.266 E774.81453
G0 F5563.6 X105.09 Y124.266
G1 F1500 X130.619 Y98.737 E777.68475
G0 F5563.6 X129.87 Y98.737
G1 F1500 X104.34 Y124.266 E780.55504
G0 F5563.6 X103.591 Y124.266
G1 F1500 X129.12 Y98.737 E783.42526
G0 F5563.6 X128.37 Y98.737
G1 F1500 X102.841 Y124.266 E786.29549
